X: 1
T: Stolen Apples
R: slip jig
M: 9/8
L: 1/8
K: Gmaj
G3 G2A B2D|E2F E3 D3|B3 F3 G3|d2B e3 A3|
Bcd B2A G2F|E2D E2F E2D|G2E c2B A2G|1A3 A2E FED:|2A3 A2E FGA||
B3 B2c B2A|e3 A3 A3|Bcd B2A G2A|F2E D2E F2G|
B3 B2c B2A|e3 d2e f2d|g2d e2d Bcd|1c2B A2G E3:|2c2A fed CBA||

|2c2A FGA G3||


